X: 289
T: River Bend Jig
M:6/8
R:jig
L:1/8
C: Dan R. MacDonald
Z:Alf Warnock - alf0@rogers.com
K:A
f|"A"e2A f2d|ecA Ace|"G"=g2d BAB|=GBd =gdB|
"A"e2A f2d|ecA Ace|"G"=g2e dcd|"A"ecA A2:|
e|"A"aba aec|"A7"Ace a=gf|"G"=gag gdB|=GBd =gdB|
[1 "A"aba aec|Ace a=gf|"G"=g2e dcd|"A"ecA A2:|
[2 "Am"=cBc "E7"dcd|"Am"ef=g "D"agf|"G"=g2e dcd|"A"ecA A2|]
